icons/glyphs/glyph-mimetype-text-tiny.svg

<?xml version="1.0" encoding="UTF-8" standalone="no"?><svg height="22" viewBox="0 0 5.8208332 5.8208335" width="22" xmlns="http://www.w3.org/2000/svg"><sodipodi:namedview/><metadata><rdf:RDF><cc:Work><dc:format>image/svg+xml</dc:format><dc:type/><dc:title/><cc:license/><dc:creator><cc:Agent><dc:title>PixelPimps &amp; CodePoets</dc:title></cc:Agent></dc:creator></cc:Work><cc:License><cc:permits/><cc:permits/><cc:requires/><cc:requires/><cc:permits/></cc:License></rdf:RDF></metadata><path d="m .00000002.03969142v.9124598h5.82083328v-.9124598zm0 1.60906868v.9133517h5.82083328v-.9133517zm0 1.6099609v.9133518h5.82083328v-.9133518zm2.14958748 1.609961v.9124599h3.6712458v-.9124599z" fill="#d0d0d0" stroke-linecap="round" stroke-width=".456676"/></svg>

<?xml version="1.0" encoding="UTF-8" standalone="no"?>
<!-- Created with Inkscape (http://www.inkscape.org/) -->

<svg
   xmlns:dc="http://purl.org/dc/elements/1.1/"
   xmlns:cc="http://creativecommons.org/ns#"
   xmlns:rdf="http://www.w3.org/1999/02/22-rdf-syntax-ns#"
   xmlns:svg="http://www.w3.org/2000/svg"
   xmlns="http://www.w3.org/2000/svg"
   xmlns:sodipodi="http://sodipodi.sourceforge.net/DTD/sodipodi-0.dtd"
   xmlns:inkscape="http://www.inkscape.org/namespaces/inkscape"
   width="22"
   height="22"
   viewBox="0 0 5.8208332 5.8208335"
   version="1.1"
   id="svg8"
   inkscape:version="0.92+devel 15739 custom"
   sodipodi:docname="glyph-mimetype-text-tiny.svg">
  <defs
     id="defs2" />
  <sodipodi:namedview
     id="base"
     pagecolor="#002466"
     bordercolor="#ffffff"
     borderopacity="0.32156863"
     inkscape:pageopacity="1"
     inkscape:pageshadow="2"
     inkscape:zoom="19.090909"
     inkscape:cx="11"
     inkscape:cy="11"
     inkscape:document-units="px"
     inkscape:current-layer="svg8"
     inkscape:document-rotation="0"
     showgrid="false"
     units="px"
     inkscape:pagecheckerboard="false"
     borderlayer="true"
     inkscape:showpageshadow="false"
     inkscape:window-width="1920"
     inkscape:window-height="1051"
     inkscape:window-x="0"
     inkscape:window-y="0"
     inkscape:window-maximized="1" />
  <metadata
     id="metadata5">
    <rdf:RDF>
      <cc:Work
         rdf:about="">
        <dc:format>image/svg+xml</dc:format>
        <dc:type
           rdf:resource="http://purl.org/dc/dcmitype/StillImage" />
        <dc:title></dc:title>
        <cc:license
           rdf:resource="http://creativecommons.org/licenses/by/4.0/" />
        <dc:creator>
          <cc:Agent>
            <dc:title>PixelPimps &amp; CodePoets</dc:title>
          </cc:Agent>
        </dc:creator>
      </cc:Work>
      <cc:License
         rdf:about="http://creativecommons.org/licenses/by/4.0/">
        <cc:permits
           rdf:resource="http://creativecommons.org/ns#Reproduction" />
        <cc:permits
           rdf:resource="http://creativecommons.org/ns#Distribution" />
        <cc:requires
           rdf:resource="http://creativecommons.org/ns#Notice" />
        <cc:requires
           rdf:resource="http://creativecommons.org/ns#Attribution" />
        <cc:permits
           rdf:resource="http://creativecommons.org/ns#DerivativeWorks" />
      </cc:License>
    </rdf:RDF>
  </metadata>
  <path
     inkscape:connector-curvature="0"
     style="fill:#d0d0d0;stroke-width:0.45667583;stroke-linecap:round"
     d="m 2.4999998e-8,0.03969142 v 0.9124598 H 5.8208333 v -0.9124598 z m 0,1.60906868 V 2.5621118 H 5.8208333 V 1.6487601 Z m 0,1.6099609 V 4.1720728 H 5.8208333 V 3.258721 Z M 2.1495875,4.868682 V 5.7811419 H 5.8208333 V 4.868682 Z"
     id="rect4941"
     inkscape:label="#1" />
</svg>
